www/assets/icons/production_quantity_limits.svg

<svg xmlns="http://www.w3.org/2000/svg" width="24" height="24" viewBox="0 0 24 24" fill='currentColor'><path d="M14 10.5h-2v-2h2zm0-4h-2v-5h2zm-6 12c-1.1 0-1.99.9-1.99 2s.89 2 1.99 2 2-.9 2-2-.9-2-2-2m10 0c-1.1 0-1.99.9-1.99 2s.89 2 1.99 2 2-.9 2-2-.9-2-2-2m-8.9-5h7.45c.75 0 1.41-.41 1.75-1.03L22 5.46l-1.75-.96-3.7 7H9.53l-4.26-9H2v2h2l3.6 7.59-1.35 2.44c-.73 1.34.23 2.97 1.75 2.97h12v-2H8z"/></svg>

<svg width="24" height="24" viewBox="0 0 24 24" xmlns="http://www.w3.org/2000/svg" fill='currentColor'><path d="M14 10.5H12V8.5H14V10.5ZM14 6.5H12V1.5H14V6.5ZM8 18.5C6.9 18.5 6.01 19.4 6.01 20.5C6.01 21.6 6.9 22.5 8 22.5C9.1 22.5 10 21.6 10 20.5C10 19.4 9.1 18.5 8 18.5ZM18 18.5C16.9 18.5 16.01 19.4 16.01 20.5C16.01 21.6 16.9 22.5 18 22.5C19.1 22.5 20 21.6 20 20.5C20 19.4 19.1 18.5 18 18.5ZM9.1 13.5H16.55C17.3 13.5 17.96 13.09 18.3 12.47L22 5.46L20.25 4.5L16.55 11.5H9.53L5.27 2.5H2V4.5H4L7.6 12.09L6.25 14.53C5.52 15.87 6.48 17.5 8 17.5H20V15.5H8L9.1 13.5Z"/></svg>
